storage/app/icons/phosphoricons/fill/list-heart-fill.svg

<svg xmlns="http://www.w3.org/2000/svg" fill="currentColor" viewBox="0 0 256 256"><path d="M208 32H48a16 16 0 0 0-16 16v160a16 16 0 0 0 16 16h160a16 16 0 0 0 16-16V48a16 16 0 0 0-16-16M104 184H64a8 8 0 0 1 0-16h40a8 8 0 0 1 0 16m-48-56a8 8 0 0 1 8-8h32a8 8 0 0 1 0 16H64a8 8 0 0 1-8-8m105.79 57.58a4 4 0 0 1-3.58 0C156.65 184.8 120 166.17 120 140a22 22 0 0 1 40-12.64A22 22 0 0 1 200 140c0 26.17-36.65 44.8-38.21 45.58M192 88H64a8 8 0 0 1 0-16h128a8 8 0 0 1 0 16"/></svg>

<svg xmlns="http://www.w3.org/2000/svg" viewBox="0 0 256 256" fill="currentColor"><path d="M208,32H48A16,16,0,0,0,32,48V208a16,16,0,0,0,16,16H208a16,16,0,0,0,16-16V48A16,16,0,0,0,208,32ZM104,184H64a8,8,0,0,1,0-16h40a8,8,0,0,1,0,16ZM56,128a8,8,0,0,1,8-8H96a8,8,0,0,1,0,16H64A8,8,0,0,1,56,128Zm105.79,57.58a4,4,0,0,1-3.58,0C156.65,184.8,120,166.17,120,140a22,22,0,0,1,40-12.64A22,22,0,0,1,200,140C200,166.17,163.35,184.8,161.79,185.58ZM192,88H64a8,8,0,0,1,0-16H192a8,8,0,0,1,0,16Z"/></svg>
